icons/svg/tab-unselected.svg

﻿<?xml version="1.0" encoding="utf-8"?>
<!DOCTYPE svg PUBLIC "-//W3C//DTD SVG 1.1//EN" "http://www.w3.org/Graphics/SVG/1.1/DTD/svg11.dtd">
<svg xmlns="http://www.w3.org/2000/svg" xmlns:xlink="http://www.w3.org/1999/xlink" version="1.1" baseProfile="full" width="24" height="24" viewBox="0 0 24.00 24.00" enable-background="new 0 0 24.00 24.00" xml:space="preserve">
	<path fill="#000000" fill-opacity="1" stroke-width="0.2" stroke-linejoin="round" d="M 14.9994,20.998L 16.9994,20.998L 16.9994,18.998L 14.9994,18.998M 10.9994,20.998L 12.9994,20.998L 12.9994,18.998L 10.9994,18.999M 18.9994,12.998L 20.9994,12.998L 20.9994,10.998L 18.9994,10.998M 18.9994,20.998C 20.1034,20.998 20.9994,20.1021 20.9994,18.998L 18.9994,18.998M 6.99939,4.99805L 8.99939,4.99805L 8.99939,2.99805L 6.99939,2.99805M 18.9994,16.998L 20.9994,16.998L 20.9994,14.998L 18.9994,14.998M 18.9994,2.99805L 10.9994,2.99805L 10.9994,8.99805L 20.9994,8.99805L 20.9994,4.99805C 20.9994,3.89404 20.1034,2.99805 18.9994,2.99805 Z M 4.99939,20.998L 4.99939,18.998L 2.99939,18.998C 2.99939,20.1021 3.89438,20.998 4.99939,20.998 Z M 2.99939,16.998L 4.99939,16.998L 4.99939,14.998L 2.99939,14.998M 6.99939,20.998L 8.99939,20.998L 8.99939,18.999L 6.99939,19.0001M 2.99939,4.99805L 4.99939,4.99805L 4.99939,2.99805C 3.89438,2.99805 2.99939,3.89404 2.99939,4.99805 Z M 2.99939,12.998L 4.99939,12.998L 4.99939,10.998L 2.99939,10.998M 2.99939,8.99805L 4.99939,8.99805L 4.99939,6.99805L 2.99939,6.99805L 2.99939,8.99805 Z "/>
</svg>

<svg xmlns="http://www.w3.org/2000/svg" version="1.1" baseProfile="full" width="24" height="24" viewBox="0 0 24.00 24.00" xml:space="preserve"><path fill="#000" fill-opacity="1" stroke-width=".2" stroke-linejoin="round" d="M15 20.998h2v-2h-2m-4 2h2v-2h-2m8-6h2v-2h-2m0 10c1.103 0 2-.896 2-2h-2m-12-14h2v-2H7m12 14h2v-2h-2m0-12h-8v6h10v-4c0-1.104-.897-2-2-2zm-14 18v-2H3c0 1.104.894 2 2 2zm-2-4h2v-2H3m4 6h2v-2L7 19M3 4.998h2v-2c-1.106 0-2 .896-2 2zm0 8h2v-2H3m0-2h2v-2H3v2z"/></svg>
